X:1
T:Fairies Dance,The.2voices. RH.042
T:Fairies Dance,The.2voices. RH.042
T:Largo's Fairy Dance,aka. RH.042
T:Nathaniel Gow
C:Nathaniel Gow
%%score 1 2
L:1/8
Q:1/2=100
M:2/2
K:D
V:1 treble 
V:2 treble 
V:1
 de |: f2 f>d f2 f>d | f2 f>d c>Aec | f2 f>d gfed | c>AB>c d2 d2 :: a2 a>f b2 b>a | g>fg>e a2 a>g | %7
 f2 f>d B2 g>e | c>AB>c d2 d2 :| %9
V:2
 z2 |: d2 d2 d2 d2 | d2 d2 A2 A2 | d2 d2 ed AF | A>FG>A F2 F2 :: f2 f>d g2 g>f | e>de>c f2 f>e | %7
 d2 d>A F2 B2 | A>FG>A F2 F2 :| %9

